X:1
T:Title
%%score { ( 1 3 ) | 2 }
L:1/8
Q:1/4=100
M:4/4
K:G
V:1 treble nm="Grand Piano"
V:3 treble 
V:2 bass 
V:1
 B3 G c2 B2 | [DB]4 [B,G]2 z2 | [EG]3 [EG] [^DG]2 [DA]2 | B6 z2 | [Fd]3 [FA] [FA]2 [Fc]2 | %5
w: Thomas~P.~Westendorf * * *|||||
 [Ec]4 [DB]2 z2 | [DFA]3 [DFA] [^CGB]2 [E^c]2 | [Fd]6 z2 |[M:1/4] [Fd][Fc] |[M:4/4] BBBB BBAB | %10
w: |||||
 [Ac]6 z2 | [FA][FA][FA][FA] AAB[Ac] | [Gd]6 z2 | dddd ddcd | [Ge]6 z2 | [Fd]2 [Fd]2 [FA]2 [Fd]2 | %16
w: ||||||
[M:3/4] [DG]6 |] %17
w: |
V:2
 [G,D]3 [G,B,] [G,E]2 [G,D]2 | [G,,G,]4 [G,,G,]2 z2 | [C,C]3 [C,C] [C,C]2 [C,C]2 | [G,D]6 z2 | %4
 [D,A,]3 [D,D] [D,D]2 [D,A,]2 | G,4 G,2 z2 | D,3 D, A,,2 [A,,A,]2 | [D,A,]6 z2 | %8
[M:1/4] [D,A,][D,D] |[M:4/4][K:treble] [G,DG][G,DG][G,DG][G,DG] [G,DG][G,DG][G,DF][G,DG] | %10
 [D,D]2 D,>D, D,2 [D,D][D,D] | [D,D][D,D][D,D][D,D][K:treble] [G,DF][G,DF][G,DG][G,D] | %12
 [G,B,]2 G,>G, G,2 [G,B,G][G,B,G] | [G,B,G][G,B,G][G,B,G][G,B,G] [G,B,G][G,B,G][G,EG][G,DG] | %14
 [C,C]2 C,>C, C,2 [C,C][C,C] | [D,A,]2 [D,A,]2 [D,D]2 [D,C]2 |[M:3/4] [G,B,]6 |] %17
V:3
 x8 | x8 | x8 | x8 | x8 | x8 | x8 | x8 |[M:1/4] x2 |[M:4/4] x8 | z2 D>D D2 [Ac][GB] | x8 | %12
 z2 B,>B, B,2 dd | x8 | z2 C>C C2 [Ge][Ge] | x8 |[M:3/4] x6 |] %17

